;FLAVOR:Marlin
;TIME:8699
;Filament used: 5.43803m
;Layer height: 0.2
;MINX:68.5
;MINY:76.395
;MINZ:0.2
;MAXX:151.5
;MAXY:137.395
;MAXZ:14
;Generated with Cura_SteamEngine 4.13.1
M140 S55
M105
M190 S55
M104 S200
M105
M109 S200
M82 ;absolute extrusion mode
; Ender 3 Custom Start G-code
G92 E0 ; Reset Extruder
G28 ; Home all axes
G29 ; Level bed
G1 Z2.0 F3000 ; Move Z Axis up little to prevent scratching of Heat Bed
G1 X0.1 Y20 Z0.3 F5000.0 ; Move to start position
G1 X0.1 Y200.0 Z0.3 F1500.0 E15 ; Draw the first line
G1 X0.4 Y200.0 Z0.3 F5000.0 ; Move to side a little
G1 X0.4 Y20 Z0.3 F1500.0 E30 ; Draw the second line
G92 E0 ; Reset Extruder
G1 Z2.0 F3000 ; Move Z Axis up little to prevent scratching of Heat Bed
G1 X5 Y20 Z0.3 F5000.0 ; Move over to prevent blob squish
G92 E0
G92 E0
G1 F2700 E-5
;LAYER_COUNT:70
;LAYER:0
M107
G0 F6000 X72.386 Y79.022 Z0.2
;TYPE:SKIRT
G1 F2700 E0
G1 F1200 X73.126 Y78.446 E0.03119
G1 X73.912 Y77.934 E0.06239
G1 X74.739 Y77.492 E0.09358
G1 X75.601 Y77.122 E0.12478
G1 X76.491 Y76.826 E0.15597
G1 X77.403 Y76.608 E0.18716
G1 X78.33 Y76.467 E0.21835
G1 X79.201 Y76.408 E0.24738
G1 X79.522 Y76.399 E0.25806
G1 X79.83 Y76.395 E0.26831
G1 X139.793 Y76.395 E2.26269
G1 X140.649 Y76.406 E2.29116
G1 X141.585 Y76.46 E2.32234
G1 X142.513 Y76.592 E2.35352
G1 X143.427 Y76.804 E2.38473
G1 X144.319 Y77.093 E2.41591
G1 X145.184 Y77.456 E2.44711
G1 X146.014 Y77.892 E2.4783
G1 X146.805 Y78.397 E2.50951
G1 X147.549 Y78.968 E2.5407
G1 X148.242 Y79.6 E2.5719
G1 X148.879 Y80.288 E2.60308
G1 X149.454 Y81.029 E2.63428
G1 X149.965 Y81.815 E2.66546
G1 X150.407 Y82.643 E2.69668
G1 X150.776 Y83.505 E2.72786
G1 X151.071 Y84.395 E2.75905
G1 X151.289 Y85.307 E2.79024
G1 X151.429 Y86.235 E2.82145
G1 X151.487 Y87.096 E2.85015
G1 X151.496 Y87.416 E2.8608
G1 X151.5 Y87.725 E2.87108
G1 X151.499 Y125.795 E4.13729
G1 X151.49 Y126.522 E4.16147
G1 X151.439 Y127.459 E4.19269
G1 X151.307 Y128.387 E4.22386
G1 X151.098 Y129.301 E4.25505
G1 X150.811 Y130.194 E4.28624
G1 X150.449 Y131.06 E4.31746
G1 X150.015 Y131.891 E4.34864
G1 X149.511 Y132.682 E4.37984
G1 X148.942 Y133.427 E4.41102
G1 X148.311 Y134.122 E4.44224
G1 X147.624 Y134.76 E4.47342
G1 X146.885 Y135.337 E4.50461
G1 X146.099 Y135.849 E4.53581
G1 X145.273 Y136.292 E4.56698
G1 X144.411 Y136.664 E4.59821
G1 X143.522 Y136.96 E4.62937
G1 X142.61 Y137.18 E4.66058
G1 X141.683 Y137.321 E4.69176
G1 X140.799 Y137.382 E4.72123
G1 X140.478 Y137.391 E4.73191
G1 X140.17 Y137.395 E4.74216
G1 X80.065 Y137.394 E6.74126
G1 X79.367 Y137.385 E6.76448
G1 X78.431 Y137.333 E6.79566
G1 X77.502 Y137.201 E6.82687
G1 X76.588 Y136.991 E6.85806
G1 X75.695 Y136.704 E6.88926
G1 X74.83 Y136.341 E6.92046
G1 X73.999 Y135.907 E6.95164
G1 X73.208 Y135.403 E6.98283
G1 X72.463 Y134.833 E7.01403
G1 X71.769 Y134.202 E7.04523
G1 X71.132 Y133.515 E7.07639
G1 X70.555 Y132.775 E7.1076
G1 X70.043 Y131.989 E7.1388
G1 X69.6 Y131.162 E7.17
G1 X69.229 Y130.301 E7.20119
G1 X68.933 Y129.411 E7.23238
G1 X68.714 Y128.499 E7.26358
G1 X68.573 Y127.572 E7.29476
G1 X68.513 Y126.683 E7.3244
G1 X68.504 Y126.35 E7.33548
G1 X68.5 Y126.053 E7.34536
G1 X68.501 Y87.92 E8.61367
G1 X68.51 Y87.255 E8.63579
G1 X68.563 Y86.319 E8.66697
G1 X68.695 Y85.39 E8.69818
G1 X68.906 Y84.476 E8.72938
G1 X69.194 Y83.584 E8.76055
G1 X69.557 Y82.719 E8.79175
G1 X69.992 Y81.888 E8.82295
G1 X70.496 Y81.098 E8.85412
G1 X71.066 Y80.353 E8.88532
G1 X71.698 Y79.659 E8.91654
G1 X72.386 Y79.022 E8.94772
G0 F6000 X72.774 Y79.218
G1 F1200 X73.51 Y78.665 E8.97834
G1 X74.291 Y78.177 E9.00897
G1 X75.111 Y77.759 E9.03958
G1 X75.965 Y77.414 E9.07022
G1 X76.845 Y77.144 E9.10083
G1 X77.745 Y76.952 E9.13144
G1 X78.659 Y76.838 E9.16208
G1 X79.212 Y76.808 E9.1805
G1 X79.533 Y76.799 E9.19118
G1 X79.83 Y76.795 E9.20106
G1 X139.793 Y76.795 E11.19543
G1 X140.643 Y76.806 E11.22371
G1 X141.562 Y76.859 E11.25432
G1 X142.473 Y76.992 E11.28495
G1 X143.369 Y77.203 E11.31556
G1 X144.243 Y77.491 E11.34617
G1 X145.09 Y77.854 E11.37682
G1 X145.901 Y78.289 E11.40743
G1 X146.671 Y78.793 E11.43804
G1 X147.395 Y79.362 E11.46866
G1 X148.067 Y79.992 E11.4993
G1 X148.682 Y80.677 E11.52992
G1 X149.235 Y81.413 E11.56054
G1 X149.722 Y82.194 E11.59115
G1 X150.139 Y83.015 E11.62178
G1 X150.484 Y83.869 E11.65241
G1 X150.753 Y84.749 E11.68302
G1 X150.945 Y85.65 E11.71366
G1 X151.058 Y86.563 E11.74426
G1 X151.087 Y87.107 E11.76238
G1 X151.096 Y87.427 E11.77302
G1 X151.1 Y87.725 E11.78294
G1 X151.099 Y125.79 E13.04898
G1 X151.09 Y126.517 E13.07316
G1 X151.039 Y127.436 E13.10378
G1 X150.908 Y128.348 E13.13442
G1 X150.698 Y129.244 E13.16503
G1 X150.412 Y130.119 E13.19565
G1 X150.051 Y130.966 E13.22627
G1 X149.617 Y131.778 E13.25689
G1 X149.115 Y132.55 E13.28752
G1 X148.547 Y133.275 E13.31816
G1 X147.919 Y133.948 E13.34877
G1 X147.235 Y134.564 E13.37939
G1 X146.5 Y135.118 E13.41
G1 X145.72 Y135.607 E13.44062
G1 X144.9 Y136.026 E13.47125
G1 X144.047 Y136.372 E13.50186
G1 X143.167 Y136.643 E13.53249
G1 X142.267 Y136.836 E13.5631
G1 X141.353 Y136.951 E13.59374
G1 X140.788 Y136.982 E13.61256
G1 X140.467 Y136.991 E13.62324
G1 X140.17 Y136.995 E13.63312
G1 X80.07 Y136.994 E15.63206
G1 X79.372 Y136.985 E15.65527
G1 X78.453 Y136.933 E15.68589
G1 X77.542 Y136.802 E15.7165
G1 X76.646 Y136.592 E15.74711
G1 X75.771 Y136.305 E15.77774
G1 X74.924 Y135.943 E15.80837
G1 X74.112 Y135.509 E15.839
G1 X73.341 Y135.007 E15.8696
G1 X72.616 Y134.439 E15.90023
G1 X71.943 Y133.81 E15.93087
G1 X71.328 Y133.126 E15.96146
G1 X70.774 Y132.391 E15.99207
G1 X70.286 Y131.61 E16.0227
G1 X69.867 Y130.79 E16.05333
G1 X69.521 Y129.937 E16.08395
G1 X69.251 Y129.057 E16.11456
G1 X69.058 Y128.156 E16.14521
G1 X68.944 Y127.243 E16.17581
G1 X68.913 Y126.672 E16.19483
G1 X68.904 Y126.339 E16.20591
G1 X68.9 Y126.053 E16.21543
G1 X68.901 Y87.926 E17.48353
G1 X68.91 Y87.261 E17.50565
G1 X68.962 Y86.341 E17.5363
G1 X69.094 Y85.43 E17.56692
G1 X69.305 Y84.534 E17.59754
G1 X69.592 Y83.659 E17.62816
G1 X69.955 Y82.813 E17.65878
G1 X70.389 Y82.001 E17.68941
G1 X70.892 Y81.23 E17.72002
G1 X71.461 Y80.506 E17.75065
G1 X72.089 Y79.834 E17.78124
G1 X72.774 Y79.218 E17.81188
G0 F6000 X73.162 Y79.419
G1 F1200 X73.894 Y78.889 E17.84194
G1 X74.669 Y78.426 E17.87197
G1 X75.482 Y78.033 E17.902
G1 X76.327 Y77.713 E17.93205
G1 X77.196 Y77.47 E17.96207
G1 X78.084 Y77.304 E17.99211
G1 X79.223 Y77.208 E18.03013
G1 X79.544 Y77.199 E18.04081
G1 X79.83 Y77.195 E18.05032
G1 X139.793 Y77.195 E20.0447
G1 X140.637 Y77.206 E20.07278
G1 X141.539 Y77.259 E20.10283
G1 X142.432 Y77.391 E20.13285
G1 X143.31 Y77.602 E20.16289
G1 X144.166 Y77.89 E20.19292
G1 X144.993 Y78.252 E20.22295
G1 X145.785 Y78.687 E20.253
G1 X146.536 Y79.189 E20.28305
G1 X147.239 Y79.756 E20.31309
G1 X147.889 Y80.383 E20.34313
G1 X148.481 Y81.065 E20.37316
G1 X149.011 Y81.796 E20.40319
G1 X149.473 Y82.572 E20.43323
G1 X149.866 Y83.385 E20.46327
G1 X150.184 Y84.23 E20.4933
G1 X150.427 Y85.1 E20.52334
G1 X150.592 Y85.988 E20.55338
G1 X150.687 Y87.118 E20.5911
G1 X150.696 Y87.438 E20.60174
G1 X150.7 Y87.725 E20.61129
G1 X150.699 Y125.785 E21.87717
G1 X150.69 Y126.512 E21.90135
G1 X150.639 Y127.414 E21.9314
G1 X150.508 Y128.308 E21.96145
G1 X150.299 Y129.186 E21.99147
G1 X150.013 Y130.043 E22.02152
G1 X149.652 Y130.871 E22.05156
G1 X149.22 Y131.663 E22.08157
G1 X148.719 Y132.415 E22.11162
G1 X148.153 Y133.119 E22.14167
G1 X147.528 Y133.77 E22.17168
G1 X146.847 Y134.364 E22.20174
G1 X146.116 Y134.895 E22.23179
G1 X145.342 Y135.359 E22.26181
G1 X144.529 Y135.753 E22.29185
G1 X143.685 Y136.073 E22.32188
G1 X142.815 Y136.318 E22.35194
G1 X141.928 Y136.484 E22.38195
G1 X140.777 Y136.582 E22.42037
G1 X140.456 Y136.591 E22.43105
G1 X140.17 Y136.595 E22.44057
G1 X80.075 Y136.594 E24.43933
G1 X79.377 Y136.585 E24.46255
G1 X78.476 Y136.534 E24.49257
G1 X77.582 Y136.402 E24.52262
G1 X76.704 Y136.193 E24.55264
G1 X75.847 Y135.906 E24.5827
G1 X75.02 Y135.545 E24.61271
G1 X74.227 Y135.112 E24.64277
G1 X73.476 Y134.611 E24.67279
G1 X72.772 Y134.045 E24.70284
G1 X72.121 Y133.419 E24.73288
G1 X71.528 Y132.738 E24.76291
G1 X70.998 Y132.007 E24.79294
G1 X70.534 Y131.232 E24.82298
G1 X70.14 Y130.419 E24.85303
G1 X69.82 Y129.575 E24.88305
G1 X69.576 Y128.705 E24.91311
G1 X69.41 Y127.817 E24.94315
G1 X69.313 Y126.662 E24.9817
G1 X69.304 Y126.329 E24.99278
G1 X69.3 Y126.053 E25.00196
G1 X69.301 Y87.931 E26.26991
G1 X69.31 Y87.266 E26.29203
G1 X69.362 Y86.364 E26.32208
G1 X69.494 Y85.471 E26.3521
G1 X69.704 Y84.593 E26.38213
G1 X69.991 Y83.736 E26.41219
G1 X70.353 Y82.909 E26.44221
G1 X70.786 Y82.117 E26.47224
G1 X71.288 Y81.366 E26.50228
G1 X71.855 Y80.662 E26.53235
G1 X72.481 Y80.012 E26.56236
G1 X73.162 Y79.419 E26.59239
G1 F2700 E21.59239
;MESH:TOP.stl
G0 F6000 X79.92 Y86.73
G0 X79.92 Y87.815
G0 X139.718 Y88.177
G0 X139.9 Y125.795
;TYPE:WALL-INNER
G1 F2700 E26.59239
G1 F1200 X80.1 Y125.795 E28.58135
G1 X80.1 Y87.995 E29.83858
G1 X139.9 Y87.995 E31.82754
G1 X139.9 Y125.795 E33.08477
G0 F6000 X140.3 Y126.195
;TYPE:WALL-OUTER
G1 F1200 X79.7 Y126.195 E35.10034
G1 X79.7 Y87.595 E36.38418
G1 X140.3 Y87.595 E38.39974
G1 X140.3 Y126.195 E39.68358
G0 F6000 X140.03 Y125.925
G0 X139.79 Y125.405
G0 X139.51 Y125.405
;TYPE:SKIN
G1 F1200 X80.49 Y125.405 E41.6466
G1 X80.49 Y88.385 E42.87789
G1 X139.51 Y88.385 E44.8409
G1 X139.51 Y125.405 E46.07219
G1 F2700 E41.07219
G0 F6000 X139.79 Y125.405
G0 X139.79 Y89.003
G1 F2700 E46.07219
G0 F6000 X139.349 Y89.003
G1 F1200 X138.891 Y88.545 E46.09373
G0 F6000 X138.325 Y88.545
G1 F1200 X139.349 Y89.569 E46.1419
G0 F6000 X139.349 Y90.134
G1 F1200 X137.759 Y88.545 E46.21666
G0 F6000 X137.194 Y88.545
G1 F1200 X139.349 Y90.7 E46.31803
G0 F6000 X139.349 Y91.266
G1 F1200 X136.628 Y88.545 E46.44602
G0 F6000 X136.062 Y88.545
G1 F1200 X139.349 Y91.831 E46.6006
G0 F6000 X139.349 Y92.397
G1 F1200 X135.497 Y88.545 E46.78179
G0 F6000 X134.931 Y88.545
G1 F1200 X139.349 Y92.963 E46.9896
G0 F6000 X139.349 Y93.529
G1 F1200 X134.365 Y88.545 E47.22403
G0 F6000 X133.8 Y88.545
G1 F1200 X139.349 Y94.094 E47.48504
G0 F6000 X139.349 Y94.66
G1 F1200 X133.234 Y88.545 E47.77267
G0 F6000 X132.668 Y88.545
G1 F1200 X139.349 Y95.226 E48.08692
G0 F6000 X139.349 Y95.791
G1 F1200 X132.103 Y88.545 E48.42775
G0 F6000 X131.537 Y88.545
G1 F1200 X139.349 Y96.357 E48.79521
G0 F6000 X139.349 Y96.923
G1 F1200 X130.971 Y88.545 E49.18928
G0 F6000 X130.406 Y88.545
G1 F1200 X139.349 Y97.488 E49.60993
G0 F6000 X139.349 Y98.054
G1 F1200 X129.84 Y88.545 E50.05721
G0 F6000 X129.274 Y88.545
G1 F1200 X139.349 Y98.62 E50.5311
G0 F6000 X139.349 Y99.185
G1 F1200 X128.708 Y88.545 E51.0316
G0 F6000 X128.143 Y88.545
G1 F1200 X139.349 Y99.751 E51.5587
G0 F6000 X139.349 Y100.317
G1 F1200 X127.577 Y88.545 E52.11241
G0 F6000 X127.011 Y88.545
G1 F1200 X139.349 Y100.882 E52.69273
G0 F6000 X139.349 Y101.448
G1 F1200 X126.446 Y88.545 E53.29965
G0 F6000 X125.88 Y88.545
G1 F1200 X139.349 Y102.014 E53.93319
G0 F6000 X139.349 Y102.579
G1 F1200 X125.314 Y88.545 E54.59333
G0 F6000 X124.749 Y88.545
G1 F1200 X139.349 Y103.145 E55.28007
G0 F6000 X139.349 Y103.711
G1 F1200 X124.183 Y88.545 E55.99343
G0 F6000 X123.617 Y88.545
G1 F1200 X139.349 Y104.277 E56.73342
G0 F6000 X139.349 Y104.842
G1 F1200 X123.052 Y88.545 E57.49998
G0 F6000 X122.486 Y88.545
G1 F1200 X139.349 Y105.408 E58.29316
G0 F6000 X139.349 Y105.974
G1 F1200 X121.92 Y88.545 E59.11297
G0 F6000 X121.355 Y88.545
G1 F1200 X139.349 Y106.539 E59.95935
G0 F6000 X139.349 Y107.105
G1 F1200 X120.789 Y88.545 E60.83236
G0 F6000 X120.223 Y88.545
G1 F1200 X139.349 Y107.671 E61.73198
G0 F6000 X139.349 Y108.236
G1 F1200 X119.658 Y88.545 E62.65819
G0 F6000 X119.092 Y88.545
G1 F1200 X139.349 Y108.802 E63.61102
G0 F6000 X139.349 Y109.368
G1 F1200 X118.526 Y88.545 E64.59047
G0 F6000 X117.96 Y88.545
G1 F1200 X139.349 Y109.933 E65.59652
G0 F6000 X139.349 Y110.499
G1 F1200 X117.395 Y88.545 E66.62916
G0 F6000 X116.829 Y88.545
G1 F1200 X139.349 Y111.065 E67.68844
G0 F6000 X139.349 Y111.63
G1 F1200 X116.263 Y88.545 E68.77431
G0 F6000 X115.698 Y88.545
G1 F1200 X139.349 Y112.196 E69.88678
G0 F6000 X139.349 Y112.762
G1 F1200 X115.132 Y88.545 E71.02587
G0 F6000 X114.566 Y88.545
G1 F1200 X139.349 Y113.328 E72.19159
G0 F6000 X139.349 Y113.893
G1 F1200 X114.001 Y88.545 E73.38388
G0 F6000 X113.435 Y88.545
G1 F1200 X139.349 Y114.459 E74.6028
G0 F6000 X139.349 Y115.025
G1 F1200 X112.869 Y88.545 E75.84833
G0 F6000 X112.304 Y88.545
G1 F1200 X139.349 Y115.59 E77.12045
G0 F6000 X139.349 Y116.156
G1 F1200 X111.738 Y88.545 E78.41918
G0 F6000 X111.172 Y88.545
G1 F1200 X139.349 Y116.722 E79.74454
G0 F6000 X139.349 Y117.287
G1 F1200 X110.607 Y88.545 E81.09648
G0 F6000 X110.041 Y88.545
G1 F1200 X139.349 Y117.853 E82.47504
G0 F6000 X139.349 Y118.419
G1 F1200 X109.474 Y88.544 E83.88027
G0 F6000 X108.909 Y88.544
G1 F1200 X139.349 Y118.984 E85.31207
G0 F6000 X139.349 Y119.55
G1 F1200 X108.343 Y88.544 E86.7705
G0 F6000 X107.777 Y88.544
G1 F1200 X139.349 Y120.116 E88.25555
G0 F6000 X139.349 Y120.681
G1 F1200 X107.212 Y88.544 E89.76717
G0 F6000 X106.646 Y88.544
G1 F1200 X139.349 Y121.247 E91.30542
G0 F6000 X139.349 Y121.813
G1 F1200 X106.08 Y88.544 E92.87029
G0 F6000 X105.515 Y88.544
G1 F1200 X139.349 Y122.378 E94.46174
G0 F6000 X139.349 Y122.944
G1 F1200 X104.949 Y88.544 E96.07981
G0 F6000 X104.383 Y88.544
G1 F1200 X139.349 Y123.51 E97.72451
G0 F6000 X139.349 Y124.076
G1 F1200 X103.818 Y88.544 E99.3958
G0 F6000 X103.252 Y88.544
G1 F1200 X139.349 Y124.641 E101.09369
G0 F6000 X139.349 Y125.207
G1 F1200 X102.686 Y88.544 E102.81821
G0 F6000 X102.121 Y88.544
G1 F1200 X138.82 Y125.244 E104.54444
G0 F6000 X138.254 Y125.244
G1 F1200 X101.555 Y88.544 E106.27067
G0 F6000 X100.989 Y88.544
G1 F1200 X137.689 Y125.244 E107.99693
G0 F6000 X137.123 Y125.244
G1 F1200 X100.424 Y88.544 E109.72316
G0 F6000 X99.858 Y88.544
G1 F1200 X136.557 Y125.244 E111.44939
G0 F6000 X135.992 Y125.244
G1 F1200 X99.292 Y88.544 E113.17564
G0 F6000 X98.726 Y88.544
G1 F1200 X135.426 Y125.244 E114.9019
G0 F6000 X134.86 Y125.244
G1 F1200 X98.161 Y88.544 E116.62813
G0 F6000 X97.595 Y88.544
G1 F1200 X134.295 Y125.244 E118.35439
G0 F6000 X133.729 Y125.244
G1 F1200 X97.029 Y88.544 E120.08064
G0 F6000 X96.464 Y88.544
G1 F1200 X133.163 Y125.244 E121.80688
G0 F6000 X132.598 Y125.244
G1 F1200 X95.898 Y88.544 E123.53313
G0 F6000 X95.332 Y88.544
G1 F1200 X132.032 Y125.244 E125.25939
G0 F6000 X131.466 Y125.244
G1 F1200 X94.767 Y88.544 E126.98562
G0 F6000 X94.201 Y88.544
G1 F1200 X130.901 Y125.244 E128.71187
G0 F6000 X130.335 Y125.244
G1 F1200 X93.635 Y88.544 E130.43813
G0 F6000 X93.07 Y88.544
G1 F1200 X129.769 Y125.244 E132.16436
G0 F6000 X129.203 Y125.244
G1 F1200 X92.504 Y88.544 E133.89059
G0 F6000 X91.938 Y88.544
G1 F1200 X128.638 Y125.244 E135.61685
G0 F6000 X128.072 Y125.244
G1 F1200 X91.373 Y88.544 E137.34308
G0 F6000 X90.807 Y88.544
G1 F1200 X127.506 Y125.244 E139.06931
G0 F6000 X126.941 Y125.244
G1 F1200 X90.241 Y88.544 E140.79557
G0 F6000 X89.675 Y88.544
G1 F1200 X126.375 Y125.244 E142.52182
G0 F6000 X125.809 Y125.244
G1 F1200 X89.11 Y88.544 E144.24806
G0 F6000 X88.544 Y88.544
G1 F1200 X125.244 Y125.244 E145.97431
G0 F6000 X124.678 Y125.244
G1 F1200 X87.978 Y88.544 E147.70057
G0 F6000 X87.413 Y88.544
G1 F1200 X124.112 Y125.244 E149.4268
G0 F6000 X123.547 Y125.244
G1 F1200 X86.847 Y88.544 E151.15305
G0 F6000 X86.281 Y88.544
G1 F1200 X122.981 Y125.244 E152.87931
G0 F6000 X122.415 Y125.244
G1 F1200 X85.716 Y88.544 E154.60554
G0 F6000 X85.15 Y88.544
G1 F1200 X121.85 Y125.244 E156.3318
G0 F6000 X121.284 Y125.244
G1 F1200 X84.584 Y88.544 E158.05805
G0 F6000 X84.019 Y88.544
G1 F1200 X120.718 Y125.244 E159.78428
G0 F6000 X120.152 Y125.244
G1 F1200 X83.453 Y88.544 E161.51052
