;FLAVOR:Marlin
;TIME:8314
;Filament used: 5.0562m
;Layer height: 0.2
;MINX:68.5
;MINY:79.5
;MINZ:0.2
;MAXX:151.5
;MAXY:140.5
;MAXZ:14
;Generated with Cura_SteamEngine 4.13.1
M140 S55
M105
M190 S55
M104 S200
M105
M109 S200
M82 ;absolute extrusion mode
; Ender 3 Custom Start G-code
G92 E0 ; Reset Extruder
G28 ; Home all axes
G29 ; Level bed
G1 Z2.0 F3000 ; Move Z Axis up little to prevent scratching of Heat Bed
G1 X0.1 Y20 Z0.3 F5000.0 ; Move to start position
G1 X0.1 Y200.0 Z0.3 F1500.0 E15 ; Draw the first line
G1 X0.4 Y200.0 Z0.3 F5000.0 ; Move to side a little
G1 X0.4 Y20 Z0.3 F1500.0 E30 ; Draw the second line
G92 E0 ; Reset Extruder
G1 Z2.0 F3000 ; Move Z Axis up little to prevent scratching of Heat Bed
G1 X5 Y20 Z0.3 F5000.0 ; Move over to prevent blob squish
G92 E0
G92 E0
G1 F2700 E-5
;LAYER_COUNT:70
;LAYER:0
M107
G0 F6000 X72.386 Y82.127 Z0.2
;TYPE:SKIRT
G1 F2700 E0
G1 F1200 X73.126 Y81.551 E0.03119
G1 X73.912 Y81.039 E0.06239
G1 X74.739 Y80.597 E0.09358
G1 X75.601 Y80.227 E0.12478
G1 X76.491 Y79.931 E0.15597
G1 X77.403 Y79.713 E0.18716
G1 X78.33 Y79.572 E0.21835
G1 X79.201 Y79.513 E0.24738
G1 X79.522 Y79.504 E0.25806
G1 X79.83 Y79.5 E0.26831
G1 X139.793 Y79.5 E2.26269
G1 X140.649 Y79.511 E2.29116
G1 X141.585 Y79.565 E2.32234
G1 X142.513 Y79.697 E2.35352
G1 X143.427 Y79.909 E2.38473
G1 X144.319 Y80.198 E2.41591
G1 X145.184 Y80.561 E2.44711
G1 X146.014 Y80.997 E2.4783
G1 X146.805 Y81.502 E2.50951
G1 X147.549 Y82.073 E2.5407
G1 X148.242 Y82.705 E2.5719
G1 X148.879 Y83.393 E2.60308
G1 X149.454 Y84.134 E2.63428
G1 X149.965 Y84.92 E2.66546
G1 X150.407 Y85.748 E2.69668
G1 X150.776 Y86.61 E2.72786
G1 X151.071 Y87.5 E2.75905
G1 X151.289 Y88.412 E2.79024
G1 X151.429 Y89.34 E2.82145
G1 X151.487 Y90.201 E2.85015
G1 X151.496 Y90.521 E2.8608
G1 X151.5 Y90.83 E2.87108
G1 X151.499 Y128.9 E4.13729
G1 X151.49 Y129.627 E4.16147
G1 X151.439 Y130.564 E4.19269
G1 X151.307 Y131.492 E4.22386
G1 X151.098 Y132.406 E4.25505
G1 X150.811 Y133.299 E4.28624
G1 X150.449 Y134.165 E4.31746
G1 X150.015 Y134.996 E4.34864
G1 X149.511 Y135.787 E4.37984
G1 X148.942 Y136.532 E4.41102
G1 X148.311 Y137.227 E4.44224
G1 X147.624 Y137.865 E4.47342
G1 X146.885 Y138.442 E4.50461
G1 X146.099 Y138.954 E4.53581
G1 X145.273 Y139.397 E4.56698
G1 X144.411 Y139.769 E4.59821
G1 X143.522 Y140.065 E4.62937
G1 X142.61 Y140.285 E4.66058
G1 X141.683 Y140.426 E4.69176
G1 X140.799 Y140.487 E4.72123
G1 X140.478 Y140.496 E4.73191
G1 X140.17 Y140.5 E4.74216
G1 X80.065 Y140.499 E6.74126
G1 X79.367 Y140.49 E6.76448
G1 X78.431 Y140.438 E6.79566
G1 X77.502 Y140.306 E6.82687
G1 X76.588 Y140.096 E6.85806
G1 X75.695 Y139.809 E6.88926
G1 X74.83 Y139.446 E6.92046
G1 X73.999 Y139.012 E6.95164
G1 X73.208 Y138.508 E6.98283
G1 X72.463 Y137.938 E7.01403
G1 X71.769 Y137.307 E7.04523
G1 X71.132 Y136.62 E7.07639
G1 X70.555 Y135.88 E7.1076
G1 X70.043 Y135.094 E7.1388
G1 X69.6 Y134.267 E7.17
G1 X69.229 Y133.406 E7.20119
G1 X68.933 Y132.516 E7.23238
G1 X68.714 Y131.604 E7.26358
G1 X68.573 Y130.677 E7.29476
G1 X68.513 Y129.788 E7.3244
G1 X68.504 Y129.455 E7.33548
G1 X68.5 Y129.158 E7.34536
G1 X68.501 Y91.025 E8.61367
G1 X68.51 Y90.36 E8.63579
G1 X68.563 Y89.424 E8.66697
G1 X68.695 Y88.495 E8.69818
G1 X68.906 Y87.581 E8.72938
G1 X69.194 Y86.689 E8.76055
G1 X69.557 Y85.824 E8.79175
G1 X69.992 Y84.993 E8.82295
G1 X70.496 Y84.203 E8.85412
G1 X71.066 Y83.458 E8.88532
G1 X71.698 Y82.764 E8.91654
G1 X72.386 Y82.127 E8.94772
G0 F6000 X72.774 Y82.323
G1 F1200 X73.51 Y81.77 E8.97834
G1 X74.291 Y81.282 E9.00897
G1 X75.111 Y80.864 E9.03958
G1 X75.965 Y80.519 E9.07022
G1 X76.845 Y80.249 E9.10083
G1 X77.745 Y80.057 E9.13144
G1 X78.659 Y79.943 E9.16208
G1 X79.212 Y79.913 E9.1805
G1 X79.533 Y79.904 E9.19118
G1 X79.83 Y79.9 E9.20106
G1 X139.793 Y79.9 E11.19543
G1 X140.643 Y79.911 E11.22371
G1 X141.562 Y79.964 E11.25432
G1 X142.473 Y80.097 E11.28495
G1 X143.369 Y80.308 E11.31556
G1 X144.243 Y80.596 E11.34617
G1 X145.09 Y80.959 E11.37682
G1 X145.901 Y81.394 E11.40743
G1 X146.671 Y81.898 E11.43804
G1 X147.395 Y82.467 E11.46866
G1 X148.067 Y83.097 E11.4993
G1 X148.682 Y83.782 E11.52992
G1 X149.235 Y84.518 E11.56054
G1 X149.722 Y85.299 E11.59115
G1 X150.139 Y86.12 E11.62178
G1 X150.484 Y86.974 E11.65241
G1 X150.753 Y87.854 E11.68302
G1 X150.945 Y88.755 E11.71366
G1 X151.058 Y89.668 E11.74426
G1 X151.087 Y90.212 E11.76238
G1 X151.096 Y90.532 E11.77302
G1 X151.1 Y90.83 E11.78294
G1 X151.099 Y128.895 E13.04898
G1 X151.09 Y129.622 E13.07316
G1 X151.039 Y130.541 E13.10378
G1 X150.908 Y131.453 E13.13442
G1 X150.698 Y132.349 E13.16503
G1 X150.412 Y133.224 E13.19565
G1 X150.051 Y134.071 E13.22627
G1 X149.617 Y134.883 E13.25689
G1 X149.115 Y135.655 E13.28752
G1 X148.547 Y136.38 E13.31816
G1 X147.919 Y137.053 E13.34877
G1 X147.235 Y137.669 E13.37939
G1 X146.5 Y138.223 E13.41
G1 X145.72 Y138.712 E13.44062
G1 X144.9 Y139.131 E13.47125
G1 X144.047 Y139.477 E13.50186
G1 X143.167 Y139.748 E13.53249
G1 X142.267 Y139.941 E13.5631
G1 X141.353 Y140.056 E13.59374
G1 X140.788 Y140.087 E13.61256
G1 X140.467 Y140.096 E13.62324
G1 X140.17 Y140.1 E13.63312
G1 X80.07 Y140.099 E15.63206
G1 X79.372 Y140.09 E15.65527
G1 X78.453 Y140.038 E15.68589
G1 X77.542 Y139.907 E15.7165
G1 X76.646 Y139.697 E15.74711
G1 X75.771 Y139.41 E15.77774
G1 X74.924 Y139.048 E15.80837
G1 X74.112 Y138.614 E15.839
G1 X73.341 Y138.112 E15.8696
G1 X72.616 Y137.544 E15.90023
G1 X71.943 Y136.915 E15.93087
G1 X71.328 Y136.231 E15.96146
G1 X70.774 Y135.496 E15.99207
G1 X70.286 Y134.715 E16.0227
G1 X69.867 Y133.895 E16.05333
G1 X69.521 Y133.042 E16.08395
G1 X69.251 Y132.162 E16.11456
G1 X69.058 Y131.261 E16.14521
G1 X68.944 Y130.348 E16.17581
G1 X68.913 Y129.777 E16.19483
G1 X68.904 Y129.444 E16.20591
G1 X68.9 Y129.158 E16.21543
G1 X68.901 Y91.031 E17.48353
G1 X68.91 Y90.366 E17.50565
G1 X68.962 Y89.446 E17.5363
G1 X69.094 Y88.535 E17.56692
G1 X69.305 Y87.639 E17.59754
G1 X69.592 Y86.764 E17.62816
G1 X69.955 Y85.918 E17.65878
G1 X70.389 Y85.106 E17.68941
G1 X70.892 Y84.335 E17.72002
G1 X71.461 Y83.611 E17.75065
G1 X72.089 Y82.939 E17.78124
G1 X72.774 Y82.323 E17.81188
G0 F6000 X73.162 Y82.524
G1 F1200 X73.894 Y81.994 E17.84194
G1 X74.669 Y81.531 E17.87197
G1 X75.482 Y81.138 E17.902
G1 X76.327 Y80.818 E17.93205
G1 X77.196 Y80.575 E17.96207
G1 X78.084 Y80.409 E17.99211
G1 X79.223 Y80.313 E18.03013
G1 X79.544 Y80.304 E18.04081
G1 X79.83 Y80.3 E18.05032
G1 X139.793 Y80.3 E20.0447
G1 X140.637 Y80.311 E20.07278
G1 X141.539 Y80.364 E20.10283
G1 X142.432 Y80.496 E20.13285
G1 X143.31 Y80.707 E20.16289
G1 X144.166 Y80.995 E20.19292
G1 X144.993 Y81.357 E20.22295
G1 X145.785 Y81.792 E20.253
G1 X146.536 Y82.294 E20.28305
G1 X147.239 Y82.861 E20.31309
G1 X147.889 Y83.488 E20.34313
G1 X148.481 Y84.17 E20.37316
G1 X149.011 Y84.901 E20.40319
G1 X149.473 Y85.677 E20.43323
G1 X149.866 Y86.49 E20.46327
G1 X150.184 Y87.335 E20.4933
G1 X150.427 Y88.205 E20.52334
G1 X150.592 Y89.093 E20.55338
G1 X150.687 Y90.223 E20.5911
G1 X150.696 Y90.543 E20.60174
G1 X150.7 Y90.83 E20.61129
G1 X150.699 Y128.89 E21.87717
G1 X150.69 Y129.617 E21.90135
G1 X150.639 Y130.519 E21.9314
G1 X150.508 Y131.413 E21.96145
G1 X150.299 Y132.291 E21.99147
G1 X150.013 Y133.148 E22.02152
G1 X149.652 Y133.976 E22.05156
G1 X149.22 Y134.768 E22.08157
G1 X148.719 Y135.52 E22.11162
G1 X148.153 Y136.224 E22.14167
G1 X147.528 Y136.875 E22.17168
G1 X146.847 Y137.469 E22.20174
G1 X146.116 Y138 E22.23179
G1 X145.342 Y138.464 E22.26181
G1 X144.529 Y138.858 E22.29185
G1 X143.685 Y139.178 E22.32188
G1 X142.815 Y139.423 E22.35194
G1 X141.928 Y139.589 E22.38195
G1 X140.777 Y139.687 E22.42037
G1 X140.456 Y139.696 E22.43105
G1 X140.17 Y139.7 E22.44057
G1 X80.075 Y139.699 E24.43933
G1 X79.377 Y139.69 E24.46255
G1 X78.476 Y139.639 E24.49257
G1 X77.582 Y139.507 E24.52262
G1 X76.704 Y139.298 E24.55264
G1 X75.847 Y139.011 E24.5827
G1 X75.02 Y138.65 E24.61271
G1 X74.227 Y138.217 E24.64277
G1 X73.476 Y137.716 E24.67279
G1 X72.772 Y137.15 E24.70284
G1 X72.121 Y136.524 E24.73288
G1 X71.528 Y135.843 E24.76291
G1 X70.998 Y135.112 E24.79294
G1 X70.534 Y134.337 E24.82298
G1 X70.14 Y133.524 E24.85303
G1 X69.82 Y132.68 E24.88305
G1 X69.576 Y131.81 E24.91311
G1 X69.41 Y130.922 E24.94315
G1 X69.313 Y129.767 E24.9817
G1 X69.304 Y129.434 E24.99278
G1 X69.3 Y129.158 E25.00196
G1 X69.301 Y91.036 E26.26991
G1 X69.31 Y90.371 E26.29203
G1 X69.362 Y89.469 E26.32208
G1 X69.494 Y88.576 E26.3521
G1 X69.704 Y87.698 E26.38213
G1 X69.991 Y86.841 E26.41219
G1 X70.353 Y86.014 E26.44221
G1 X70.786 Y85.222 E26.47224
G1 X71.288 Y84.471 E26.50228
G1 X71.855 Y83.767 E26.53235
G1 X72.481 Y83.117 E26.56236
G1 X73.162 Y82.524 E26.59239
G1 F2700 E21.59239
;MESH:BOTTOM_REV2.stl
G0 F6000 X97.829 Y103.628
G0 X97.829 Y102.193
G0 X96.174 Y102.635
G0 X96.174 Y119.291
G0 X120.336 Y119.761
G0 X119.239 Y122.252
G0 X120.435 Y123.735
G0 X121.728 Y124.585
;TYPE:WALL-INNER
G1 F2700 E26.59239
G1 F1200 X122.272 Y124.585 E26.61049
G1 X122.804 Y124.471 E26.62858
G1 X123.302 Y124.25 E26.64671
G1 X123.741 Y123.93 E26.66477
G1 X124.106 Y123.527 E26.68286
G1 X124.378 Y123.056 E26.70095
G1 X124.546 Y122.537 E26.71909
G1 X124.603 Y121.996 E26.73719
G1 X124.546 Y121.454 E26.75531
G1 X124.378 Y120.937 E26.77339
G1 X124.106 Y120.467 E26.79145
G1 X123.742 Y120.062 E26.80956
G1 X123.302 Y119.742 E26.82766
G1 X122.899 Y119.563 E26.84233
G1 X123.302 Y119.563 E26.84509
G1 X124.102 Y119.563 E26.8717
G1 X124.102 Y102.363 E27.44377
G1 X95.902 Y102.363 E28.38171
G1 X95.902 Y119.563 E28.95378
G1 X96.698 Y119.563 E28.98026
G1 X97.11 Y119.563 E28.99396
G1 X96.698 Y119.746 E28.99812
G1 X96.259 Y120.066 E29.01619
G1 X95.894 Y120.469 E29.03427
G1 X95.622 Y120.942 E29.05242
G1 X95.454 Y121.458 E29.07047
G1 X95.397 Y122 E29.08859
G1 X95.454 Y122.542 E29.10672
G1 X95.622 Y123.058 E29.12477
G1 X95.894 Y123.531 E29.14292
G1 X96.259 Y123.934 E29.161
G1 X96.698 Y124.254 E29.17907
G1 X97.196 Y124.475 E29.19719
G1 X97.728 Y124.589 E29.21529
G1 X98.272 Y124.589 E29.23338
G1 X98.804 Y124.475 E29.25148
G1 X99.302 Y124.254 E29.2696
G1 X99.741 Y123.934 E29.28767
G1 X100.106 Y123.531 E29.30575
G1 X100.378 Y123.058 E29.3239
G1 X100.546 Y122.542 E29.34195
G1 X100.603 Y122 E29.36007
G1 X100.546 Y121.458 E29.3782
G1 X100.378 Y120.942 E29.39625
G1 X100.106 Y120.469 E29.4144
G1 X99.741 Y120.066 E29.43248
G1 X99.302 Y119.746 E29.45055
G1 X98.89 Y119.563 E29.46554
G1 X99.302 Y119.563 E29.46843
G1 X120.698 Y119.563 E30.18006
G1 X121.101 Y119.563 E30.19347
G1 X120.698 Y119.742 E30.19747
G1 X120.258 Y120.062 E30.21556
G1 X119.894 Y120.467 E30.23367
G1 X119.622 Y120.937 E30.25174
G1 X119.454 Y121.454 E30.26982
G1 X119.397 Y121.996 E30.28794
G1 X119.454 Y122.537 E30.30604
G1 X119.622 Y123.056 E30.32418
G1 X119.894 Y123.527 E30.34227
G1 X120.259 Y123.93 E30.36035
G1 X120.698 Y124.25 E30.37842
G1 X121.196 Y124.471 E30.39654
G1 X121.728 Y124.585 E30.41464
G0 F6000 X121.77 Y124.185
;TYPE:WALL-OUTER
G1 F1200 X122.23 Y124.185 E30.42994
G1 X122.68 Y124.089 E30.44524
G1 X123.101 Y123.902 E30.46057
G1 X123.472 Y123.631 E30.47585
G1 X123.781 Y123.29 E30.49115
G1 X124.011 Y122.892 E30.50644
G1 X124.153 Y122.454 E30.52176
G1 X124.201 Y121.996 E30.53707
G1 X124.153 Y121.538 E30.55239
G1 X124.011 Y121.101 E30.56767
G1 X123.781 Y120.703 E30.58296
G1 X123.473 Y120.361 E30.59827
G1 X123.101 Y120.09 E30.61358
G1 X122.68 Y119.903 E30.6289
G1 X122.23 Y119.807 E30.6442
G1 X121.77 Y119.807 E30.6595
G1 X121.32 Y119.903 E30.67481
G1 X120.899 Y120.09 E30.69013
G1 X120.527 Y120.361 E30.70543
G1 X120.219 Y120.703 E30.72074
G1 X119.989 Y121.101 E30.73603
G1 X119.847 Y121.538 E30.75131
G1 X119.799 Y121.996 E30.76663
G1 X119.847 Y122.454 E30.78195
G1 X119.989 Y122.892 E30.79726
G1 X120.219 Y123.29 E30.81255
G1 X120.528 Y123.631 E30.82786
G1 X120.899 Y123.902 E30.84314
G1 X121.32 Y124.089 E30.85846
G1 X121.77 Y124.185 E30.87376
G0 F6000 X121.724 Y124.622
G1 F2700 E25.87376
G0 F6000 X120.435 Y123.735
G0 X120.106 Y123.372
G0 X119.861 Y122.949
G0 X119.71 Y122.483
G0 X119.658 Y121.996
G0 X119.71 Y121.509
G0 X119.861 Y121.044
G0 X120.106 Y120.621
G0 X120.434 Y120.257
G0 X121.724 Y119.303
G0 X123.83 Y119.291
G0 X123.83 Y102.635
G0 X121.938 Y102.624
G0 X121.728 Y100.779
G0 X121.728 Y100.589
;TYPE:WALL-INNER
G1 F2700 E30.87376
G1 F1200 X122.272 Y100.589 E30.89186
G1 X122.804 Y100.475 E30.90995
G1 X123.302 Y100.254 E30.92807
G1 X123.741 Y99.934 E30.94614
G1 X124.106 Y99.531 E30.96423
G1 X124.378 Y99.058 E30.98237
G1 X124.546 Y98.542 E31.00042
G1 X124.603 Y98 E31.01855
G1 X124.546 Y97.458 E31.03668
G1 X124.378 Y96.942 E31.05473
G1 X124.106 Y96.469 E31.07287
G1 X123.741 Y96.066 E31.09096
G1 X123.302 Y95.746 E31.10903
G1 X122.804 Y95.525 E31.12715
G1 X122.272 Y95.411 E31.14524
G1 X121.728 Y95.411 E31.16334
G1 X121.196 Y95.525 E31.18143
G1 X120.698 Y95.746 E31.19955
G1 X120.259 Y96.066 E31.21762
G1 X119.894 Y96.469 E31.23571
G1 X119.622 Y96.942 E31.25385
G1 X119.454 Y97.458 E31.2719
G1 X119.397 Y98 E31.29003
G1 X119.454 Y98.542 E31.30816
G1 X119.622 Y99.058 E31.32621
G1 X119.894 Y99.531 E31.34435
G1 X120.259 Y99.934 E31.36244
G1 X120.698 Y100.254 E31.38051
G1 X121.196 Y100.475 E31.39863
G1 X121.728 Y100.589 E31.41672
G0 F6000 X121.77 Y100.189
;TYPE:WALL-OUTER
G1 F1200 X122.23 Y100.189 E31.43202
G1 X122.68 Y100.093 E31.44733
G1 X123.101 Y99.906 E31.46265
G1 X123.472 Y99.635 E31.47793
G1 X123.781 Y99.294 E31.49323
G1 X124.011 Y98.895 E31.50855
G1 X124.153 Y98.458 E31.52384
G1 X124.201 Y98 E31.53915
G1 X124.153 Y97.542 E31.55447
G1 X124.011 Y97.105 E31.56975
G1 X123.781 Y96.706 E31.58507
G1 X123.472 Y96.365 E31.60037
G1 X123.101 Y96.094 E31.61566
G1 X122.68 Y95.907 E31.63098
G1 X122.23 Y95.811 E31.64628
G1 X121.77 Y95.811 E31.66158
G1 X121.32 Y95.907 E31.67688
G1 X120.899 Y96.094 E31.69221
G1 X120.528 Y96.365 E31.70749
G1 X120.219 Y96.706 E31.72279
G1 X119.989 Y97.105 E31.73811
G1 X119.847 Y97.542 E31.75339
G1 X119.799 Y98 E31.76871
G1 X119.847 Y98.458 E31.78403
G1 X119.989 Y98.895 E31.79931
G1 X120.219 Y99.294 E31.81463
G1 X120.528 Y99.635 E31.82993
G1 X120.899 Y99.906 E31.84521
G1 X121.32 Y100.093 E31.86054
G1 X121.77 Y100.189 E31.87584
G0 F6000 X121.724 Y100.626
G1 F2700 E26.87584
G0 F6000 X119.739 Y99.644
G0 X120.923 Y98.784
G0 X99.077 Y98.784
G0 X100.261 Y99.644
G0 X98.272 Y100.589
;TYPE:WALL-INNER
G1 F2700 E31.87584
G1 F1200 X98.804 Y100.475 E31.89394
G1 X99.302 Y100.254 E31.91206
G1 X99.741 Y99.934 E31.93012
G1 X100.106 Y99.531 E31.94821
G1 X100.378 Y99.058 E31.96636
G1 X100.546 Y98.542 E31.98441
G1 X100.603 Y98 E32.00253
G1 X100.546 Y97.458 E32.02066
G1 X100.378 Y96.942 E32.03871
G1 X100.106 Y96.469 E32.05686
G1 X99.741 Y96.066 E32.07494
G1 X99.302 Y95.746 E32.09301
G1 X98.804 Y95.525 E32.11113
G1 X98.272 Y95.411 E32.12923
G1 X97.728 Y95.411 E32.14732
G1 X97.196 Y95.525 E32.16542
G1 X96.698 Y95.746 E32.18354
G1 X96.259 Y96.066 E32.20161
G1 X95.894 Y96.469 E32.21969
G1 X95.622 Y96.942 E32.23784
G1 X95.454 Y97.458 E32.25589
G1 X95.397 Y98 E32.27401
G1 X95.454 Y98.542 E32.29214
G1 X95.622 Y99.058 E32.31019
G1 X95.894 Y99.531 E32.32834
G1 X96.259 Y99.934 E32.34642
G1 X96.698 Y100.254 E32.36449
G1 X97.196 Y100.475 E32.38261
G1 X97.728 Y100.589 E32.40071
G1 X98.272 Y100.589 E32.4188
G0 F6000 X98.23 Y100.189
;TYPE:WALL-OUTER
G1 F1200 X98.68 Y100.093 E32.4341
G1 X99.101 Y99.906 E32.44942
G1 X99.472 Y99.635 E32.46471
G1 X99.781 Y99.294 E32.48001
G1 X100.011 Y98.895 E32.49533
G1 X100.153 Y98.458 E32.51061
G1 X100.201 Y98 E32.52593
G1 X100.153 Y97.542 E32.54124
G1 X100.011 Y97.105 E32.55653
G1 X99.781 Y96.706 E32.57185
G1 X99.472 Y96.365 E32.58715
G1 X99.101 Y96.094 E32.60243
G1 X98.68 Y95.907 E32.61775
G1 X98.23 Y95.811 E32.63306
